X:1
T:Fais lever le soleil - T158
M:4/4
L:1/8
K:C
C|GG GGG4|F2F2EE FG|D4D3C|GG GGG4|F2F2EE FG|
D4D2CD|E2A2G2^F2|E6GA|_B2c2B2A2|G8|"Ref"c2c2BA GE-|E6FG|
A2A2G2F2|E4D4|c2c2BA GE-|E6FG|A2A2G2F2|E4D4|C6z2||
